public/green-coin.svg

<svg width="12" height="12" viewBox="0 0 12 12" fill="none" xmlns="http://www.w3.org/2000/svg">
<path d="M5.91074 11.8215C9.17515 11.8215 11.8215 9.17515 11.8215 5.91074C11.8215 2.64633 9.17515 0 5.91074 0C2.64633 0 0 2.64633 0 5.91074C0 9.17515 2.64633 11.8215 5.91074 11.8215Z" fill="#09683E"/>
<path d="M6.85839 5.01674H6.56175C6.50045 5.01674 6.44334 5.05409 6.42359 5.11282C6.38407 5.23177 6.27135 5.31743 6.139 5.31743C6.00665 5.31743 5.89379 5.23177 5.85387 5.11282C5.83411 5.05409 5.777 5.01674 5.7157 5.01674H5.41907C5.23773 5.01674 5.09131 5.1637 5.09131 5.34504V6.04413C5.09131 6.1532 5.10796 6.25916 5.13854 6.35889C5.27359 6.79681 5.68079 7.12091 6.15916 7.11198C6.43604 7.10684 6.68693 6.99411 6.8707 6.81332C7.06544 6.62373 7.18655 6.35835 7.18655 6.06429V5.3449C7.18655 5.1637 7.03959 5.0166 6.85825 5.0166L6.85839 5.01674ZM6.13846 5.83992C6.24496 5.83992 6.33062 5.92558 6.33062 6.03154C6.33062 6.10732 6.28704 6.1712 6.22358 6.203V6.41438C6.22358 6.4612 6.18569 6.49963 6.13832 6.49963C6.09096 6.49963 6.0532 6.4612 6.0532 6.41438V6.203C5.99041 6.17133 5.9467 6.10746 5.9467 6.03154C5.9467 5.92558 6.03236 5.83992 6.13832 5.83992H6.13846Z" fill="#38C266"/>
<path d="M9.58812 4.32123C9.30448 4.54722 8.94816 4.68579 8.55964 4.69567H8.47033C8.04284 4.68471 7.65391 4.51745 7.35836 4.25004L7.35782 4.2495C7.32412 4.21215 7.28826 4.17683 7.25132 4.14354C6.96768 3.83663 6.79419 3.42618 6.79419 2.97541C6.79419 2.66173 6.87836 2.36767 7.02478 2.11475C8.23919 2.3812 9.16008 3.16961 9.58798 4.32123H9.58812Z" fill="#38C266"/>
<path d="M7.35967 4.25069C7.32287 4.21669 7.28701 4.18093 7.25317 4.1438C7.28998 4.17738 7.32584 4.21301 7.35967 4.25069Z" fill="#38C266"/>
<path d="M8.56075 4.69556C8.54573 4.6961 8.53111 4.6961 8.51609 4.6961C8.50107 4.6961 8.48646 4.6961 8.47144 4.69556H8.56075Z" fill="#38C266"/>
<path d="M9.58243 7.52547V7.52601C9.15034 8.67235 8.22674 9.45088 7.0103 9.71057C6.87268 9.46333 6.79419 9.17874 6.79419 8.87588C6.79419 8.01629 7.42426 7.30313 8.24799 7.17538C8.33528 7.16185 8.42405 7.15454 8.51499 7.15454C8.91799 7.15454 9.28891 7.29325 9.5823 7.52547H9.58243Z" fill="#38C266"/>
<path d="M6.18069 2.36049C6.18069 2.99516 5.83736 3.54946 5.3257 3.84758C5.24207 3.88033 5.16209 3.9193 5.08577 3.96396C4.89198 4.03974 4.6806 4.08128 4.45989 4.08128C3.88963 4.08128 3.38419 3.80387 3.07104 3.37651C3.75457 2.52423 4.81214 2.01514 6.07946 2.01514C6.10179 2.01514 6.12412 2.01514 6.14645 2.01568C6.16878 2.12732 6.18069 2.24262 6.18069 2.36062V2.36049Z" fill="#38C266"/>
<path d="M5.32514 3.84741C5.24881 3.89207 5.16829 3.93104 5.08521 3.96379C5.16153 3.91913 5.24151 3.88016 5.32514 3.84741Z" fill="#38C266"/>
<path d="M6.1803 9.49019C6.1803 9.59764 6.17042 9.70319 6.1512 9.8055C6.12725 9.80604 6.10289 9.80604 6.07907 9.80604C4.8169 9.80604 3.76312 9.3048 3.07959 8.4624C3.39327 8.04167 3.89452 7.76953 4.45964 7.76953C5.41016 7.76953 6.18043 8.5398 6.18043 9.49033L6.1803 9.49019Z" fill="#38C266"/>
<path d="M4.13388 5.73031C4.13022 5.79107 4.12874 5.85292 4.12874 5.91625C4.12874 5.97958 4.13036 6.03628 4.13347 6.09447V6.09501C4.04673 6.9094 3.39175 7.55395 2.57263 7.62459C2.35191 7.11915 2.23242 6.54375 2.23242 5.91625C2.23242 5.28874 2.3534 4.70495 2.57628 4.19653C3.39487 4.2692 4.04876 4.91484 4.13401 5.72977V5.73031H4.13388Z" fill="#38C266"/>
<path d="M4.14279 5.91048C4.14279 5.97273 4.13968 6.03403 4.13291 6.09438C4.1298 6.03619 4.12817 5.97652 4.12817 5.91616C4.12817 5.85283 4.1298 5.79099 4.13332 5.73022C4.13954 5.7895 4.14265 5.84972 4.14265 5.91048H4.14279Z" fill="#38C266"/>
</svg>

<svg xmlns="http://www.w3.org/2000/svg" width="12" height="12" fill="none" viewBox="0 0 12 12"><path fill="#09683e" d="M5.91 11.822A5.91 5.91 0 1 0 5.91 0a5.91 5.91 0 0 0 0 11.822"/><path fill="#38c266" d="M6.858 5.017h-.296a.145.145 0 0 0-.138.096.3.3 0 0 1-.57 0 .145.145 0 0 0-.138-.096h-.297a.33.33 0 0 0-.328.328v.7q0 .163.048.314c.135.438.542.762 1.02.753a1.04 1.04 0 0 0 .712-.299c.194-.19.316-.455.316-.749v-.72a.33.33 0 0 0-.329-.327m-.72.823a.192.192 0 0 1 .086.363v.211a.085.085 0 1 1-.17 0v-.211a.191.191 0 0 1 .084-.363m3.45-1.519c-.284.226-.64.365-1.028.375h-.09a1.72 1.72 0 0 1-1.112-.446 2 2 0 0 0-.107-.106 1.72 1.72 0 0 1-.226-2.03c1.214.267 2.135 1.056 2.563 2.207"/><path fill="#38c266" d="M7.36 4.25a2 2 0 0 1-.107-.106q.056.05.107.107m1.2.445h-.089zm1.022 2.829v.001C9.15 8.672 8.227 9.451 7.01 9.711a1.72 1.72 0 0 1 2.572-2.185M6.18 2.36a1.72 1.72 0 0 1-.854 1.488 2 2 0 0 0-.24.116 1.72 1.72 0 0 1-2.015-.587c.684-.853 1.741-1.362 3.008-1.362h.067q.035.169.035.346"/><path fill="#38c266" d="M5.325 3.847a2 2 0 0 1-.24.117q.115-.067.24-.117M6.18 9.49q0 .162-.029.316H6.08c-1.262 0-2.316-.501-3-1.344a1.72 1.72 0 0 1 3.1 1.028M4.134 5.73a3 3 0 0 0 0 .364v.001a1.72 1.72 0 0 1-1.561 1.53 4.25 4.25 0 0 1-.34-1.709c0-.627.12-1.211.343-1.72A1.72 1.72 0 0 1 4.134 5.73"/><path fill="#38c266" d="M4.143 5.91q0 .094-.01.184a3 3 0 0 1 0-.364q.01.09.01.18"/></svg>
